packages/foundations/assets/icons/functional/images/communication/envelope.svg

<svg xmlns="http://www.w3.org/2000/svg" width="32" height="32" fill="none"><path fill="#1A1C1F" fill-rule="evenodd" d="M3.364 6.114a2.2 2.2 0 0 0-1.241 1.182L2 7.6v15.893l.148.418c.342.967.974 1.599 1.941 1.941l.418.148h22.986l.418-.148a3 3 0 0 0 1.243-.792c.354-.37.519-.641.699-1.152l.147-.415.016-7.706c.016-7.99.012-8.138-.203-8.627-.143-.323-.586-.769-.945-.951l-.308-.156-12.48-.011c-11.161-.01-12.505-.002-12.716.072m18.263 6.85c-2.96 2.962-5.044 5.007-5.168 5.071-.236.123-.56.144-.833.053-.139-.045-1.45-1.325-5.199-5.074L5.414 8h21.172zm-7.161 6.784c.556.373 1.713.511 2.387.284.793-.266.582-.074 6.041-5.521l5.108-5.097-.015 6.959-.014 6.96-.13.193c-.072.106-.214.25-.316.32l-.186.127H4.659l-.186-.127a1.5 1.5 0 0 1-.316-.32l-.13-.193-.014-6.952-.015-6.952 5.123 5.085c2.818 2.797 5.223 5.152 5.345 5.234"/></svg>

<svg width="32" height="32" viewBox="0 0 32 32" fill="none" xmlns="http://www.w3.org/2000/svg"><path d="M3.364 6.114 C 2.831 6.301,2.333 6.775,2.123 7.296 L 2.000 7.600 2.000 15.547 L 2.000 23.493 2.148 23.911 C 2.490 24.878,3.122 25.510,4.089 25.852 L 4.507 26.000 16.000 26.000 L 27.493 26.000 27.911 25.852 C 28.424 25.671,28.796 25.434,29.154 25.060 C 29.508 24.690,29.673 24.419,29.853 23.908 L 30.000 23.493 30.016 15.787 C 30.032 7.797,30.028 7.649,29.813 7.160 C 29.670 6.837,29.227 6.391,28.868 6.209 L 28.560 6.053 16.080 6.042 C 4.919 6.032,3.575 6.040,3.364 6.114 M21.627 12.964 C 18.667 15.926,16.583 17.971,16.459 18.035 C 16.223 18.158,15.899 18.179,15.626 18.088 C 15.487 18.043,14.176 16.763,10.427 13.014 L 5.414 8.000 16.000 8.000 L 26.586 8.000 21.627 12.964 M14.466 19.748 C 15.022 20.121,16.179 20.259,16.853 20.032 C 17.646 19.766,17.435 19.958,22.894 14.511 L 28.002 9.414 27.987 16.373 L 27.973 23.333 27.843 23.526 C 27.771 23.632,27.629 23.776,27.527 23.846 L 27.341 23.973 16.000 23.973 L 4.659 23.973 4.473 23.846 C 4.371 23.776,4.229 23.632,4.157 23.526 L 4.027 23.333 4.013 16.381 L 3.998 9.429 9.121 14.514 C 11.939 17.311,14.344 19.666,14.466 19.748 " fill="#1A1C1F" stroke="none" fill-rule="evenodd"></path></svg>
